assets/icons/office/drawing.svg

<?xml version="1.0" encoding="UTF-8" standalone="no"?>
<svg
   viewBox="0 0 24 24"
   height="24"
   id="svg7384"
   version="1.1"
   width="24"
   sodipodi:docname="drawing.svg"
   inkscape:version="1.2 (1:1.2.1+202207142221+cd75a1ee6d)"
   xmlns:inkscape="http://www.inkscape.org/namespaces/inkscape"
   xmlns:sodipodi="http://sodipodi.sourceforge.net/DTD/sodipodi-0.dtd"
   xmlns="http://www.w3.org/2000/svg"
   xmlns:svg="http://www.w3.org/2000/svg"
   xmlns:rdf="http://www.w3.org/1999/02/22-rdf-syntax-ns#"
   xmlns:cc="http://creativecommons.org/ns#"
   xmlns:dc="http://purl.org/dc/elements/1.1/">
  <sodipodi:namedview
     pagecolor="#ffffff"
     bordercolor="#666666"
     borderopacity="1"
     objecttolerance="10"
     gridtolerance="10"
     guidetolerance="10"
     inkscape:pageopacity="0"
     inkscape:pageshadow="2"
     inkscape:window-width="1920"
     inkscape:window-height="1043"
     id="namedview21"
     showgrid="true"
     inkscape:zoom="15.710297"
     inkscape:cx="19.095757"
     inkscape:cy="12.603199"
     inkscape:window-x="0"
     inkscape:window-y="0"
     inkscape:window-maximized="1"
     inkscape:current-layer="svg7384"
     inkscape:document-rotation="0"
     inkscape:showpageshadow="2"
     inkscape:pagecheckerboard="0"
     inkscape:deskcolor="#d1d1d1">
    <inkscape:grid
       type="xygrid"
       id="grid930"
       originx="0"
       originy="0" />
    <inkscape:grid
       type="xygrid"
       id="grid649"
       dotted="true"
       spacingx="0.5"
       spacingy="0.5"
       empspacing="10" />
  </sodipodi:namedview>
  <metadata
     id="metadata20854">
    <rdf:RDF>
      <cc:Work
         rdf:about="">
        <dc:format>image/svg+xml</dc:format>
        <dc:type
           rdf:resource="http://purl.org/dc/dcmitype/StillImage" />
      </cc:Work>
    </rdf:RDF>
  </metadata>
  <defs
     id="defs7386">
    <linearGradient
       id="linearGradient5606"
       inkscape:swatch="solid">
      <stop
         id="stop5608"
         offset="0"
         style="stop-color:#000000;stop-opacity:1;" />
    </linearGradient>
    <linearGradient
       id="linearGradient4526"
       inkscape:swatch="solid">
      <stop
         id="stop4528"
         offset="0"
         style="stop-color:#ffffff;stop-opacity:1;" />
    </linearGradient>
    <linearGradient
       id="linearGradient3600-4"
       inkscape:swatch="gradient">
      <stop
         id="stop3602-7"
         offset="0"
         style="stop-color:#f4f4f4;stop-opacity:1" />
      <stop
         id="stop3604-6"
         offset="1"
         style="stop-color:#dbdbdb;stop-opacity:1" />
    </linearGradient>
  </defs>
  <path
     style="color:#000000;fill:#808080;fill-opacity:1;-inkscape-stroke:none"
     d="m 7.5,1.9999999 c -1.499998,0 -2.5560503,-0.050745 -3.3828125,0.4453125 C 3.7038064,2.6933411 3.3972496,3.1012204 3.2285156,3.6074214 3.0597817,4.1136234 3,4.7222234 3,5.5000004 V 18.5 c 0,0.777777 0.058558,1.391308 0.25,1.908203 0.1914421,0.516894 0.5529634,0.926871 1.0273437,1.164062 C 5.226104,22.046645 6.500002,22 8.5,22 h 7 c 1.499998,0 2.55605,0.05074 3.382812,-0.445313 0.413382,-0.248029 0.719938,-0.655907 0.888672,-1.162109 C 19.940218,19.886375 20,19.277777 20,18.5 V 7.2929684 L 14.707031,1.9999999 Z m 0,1 H 14 v 5.0000005 h 5 V 18.5 c 0,0.722221 -0.06522,1.238624 -0.177734,1.576171 -0.112516,0.337548 -0.24346,0.492171 -0.455079,0.619141 C 17.943951,20.949253 16.999999,21 15.5,21 h -7 C 6.500002,21 5.273894,20.95335 4.7226562,20.677734 4.4470373,20.539925 4.3085576,20.387402 4.1875,20.060546 4.0664424,19.733691 4,19.222221 4,18.5 V 5.5000004 C 4,4.7777784 4.065219,4.2613754 4.1777344,3.9238284 4.2902501,3.5862804 4.4211942,3.4316584 4.6328125,3.3046874 5.056049,3.0507454 6.000002,2.9999999 7.5,2.9999999 Z"
     id="path874"
     sodipodi:nodetypes="ssssssssssssccsscccssssssssssss" />
  <circle
     style="fill:#808080;stroke-width:2;stroke-linejoin:round"
     id="path584"
     cx="15.5"
     cy="11.5"
     r="1.5" />
  <path
     style="fill:#808080;stroke:none;stroke-width:1px;stroke-linecap:butt;stroke-linejoin:miter;stroke-opacity:1"
     d="m 6,19 3.5,-7 2,3.5 1.5,-2 3,5.5 z"
     id="path651"
     sodipodi:nodetypes="cccccc" />
</svg>

<svg height="24" width="24" xmlns="http://www.w3.org/2000/svg"><path style="color:#000;fill:gray;fill-opacity:1;-inkscape-stroke:none" d="M7.5 2c-1.5 0-2.556-.05-3.383.445-.413.248-.72.656-.888 1.162C3.059 4.114 3 4.722 3 5.5v13c0 .778.059 1.391.25 1.908.191.517.553.927 1.027 1.164.95.475 2.223.428 4.223.428h7c1.5 0 2.556.05 3.383-.445.413-.248.72-.656.888-1.162.17-.507.229-1.115.229-1.893V7.293L14.707 2zm0 1H14v5h5v10.5c0 .722-.065 1.239-.178 1.576-.112.338-.243.492-.455.62C17.944 20.948 17 21 15.5 21h-7c-2 0-3.226-.047-3.777-.322-.276-.138-.414-.29-.535-.617C4.066 19.734 4 19.222 4 18.5v-13c0-.722.065-1.239.178-1.576.112-.338.243-.492.455-.62C5.056 3.052 6 3 7.5 3z"/><circle style="fill:gray;stroke-width:2;stroke-linejoin:round" cx="15.5" cy="11.5" r="1.5"/><path style="fill:gray;stroke:none;stroke-width:1px;stroke-linecap:butt;stroke-linejoin:miter;stroke-opacity:1" d="m6 19 3.5-7 2 3.5 1.5-2 3 5.5z"/></svg>
